X: 785
T: Gel Bir Daha...
C: Selânikli Ahmed Bey
O: Turkey
F: http://compmusic.upf.edu/node/140
N: mahur--sarki--senginsemai--gel_bir--selanikli_ahmed_bey
N: makam= mahur
N: form= sarki
N: usul= senginsemai = 6/4
M: 6/4
L: 1/16
K: C ^9/8f   
Q: 1/4=72
%%MIDI tuningsystem comma53
.G.B.d.g b4 a3g fgaf g3f e4  | c'3b a3g ^f3e e2ed d8  | 
w:  ARANAĞME  |   | 
d2ef g3/2f/ge d3c B2c2 A4 e4  | dcBA G2B2 A3G FGAF G8  | 
w:   |   | 
.G.B.d.g b4 a3g fgaf g3f e4  | c'3b a3g ^f3e e2ed d8  | 
w:  ARANAĞME  |   | 
d2ef g3/2f/ge d3c B2c2 A4 e4  | dcBA G2B2 A3G FGAF G8  | 
w:   |   | 
g4 g4 f2g2 a2{b}ag g6z2  | f2g2 a2{b}ag g3^f f3e ag^2/4fe d4  | 
w:  Gel  bir  da *  ha  *  *  *  gül   |  rû *  *  *  *  *  yi *  ni  *  aç   | 
g3f e4 f4 g2a2 a3g f2ag  | g8 f2ed b2ag g8  | \
w:  han *  *  de ni  *  gös  |  ter   SAZ  | 
f2g2 a2{b}ag g3^f gffe e8  | 
w:  Çeş *  *  *  *  *  mim  *  se *  *  *  ni   | 
e2g2 =f2e2 e3d edcB c8  | c4 c4 c3B B3A A3G F2(3BAG  | 
w:  sî *  *  *  nem  *  se *  *  *  ni   |  kal bim  se *  ni  *  is  | 
G8 f2ed b2ag g8  | f2g2 a2{b}ag g3^f gffe e8  | \
w:  ter   SAZ  |  Çeş *  *  *  *  *  mim  *  se *  *  *  ni   | 
e2g2 =f2e2 e3d edcB c8  | 
w:  sî *  *  *  nem  *  se *  *  *  ni   | 
c4 c4 c3B B3A A3G F2(3BAG  | G8 d4 ^f_3/4eed d8  | \
w:  kal bim  se *  ni  *  is  |  ter   SAZ  | 
d4 f3_3/4e e3d d2^3/4c2 d3c _7/8BAB2  | 
w:  Ef sa *  ne  *  i *  miş   | 
z2_7/8e2 d2^3/4c2 _7/8B3A AGGF G8  | \
w:  es *  *  ki  *  mu *  *  *  hab  | 
g3f e4 .f4 g2a2 a3g f2{b}ag  | 
w:  bet *  *  ler  e *  mel  | 
g8 f2ed b2ag g8  | f2g2 a2{b}ag g3^f gffe e8  | \
w:  ler    |  Çeş *  *  *  *  *  mim  *  se *  *  *  ni   | 
e2g2 =f2e2 e3d edcB c8  | 
w:  sî *  *  *  nem  *  se *  *  *  ni   | 
c4 c4 c3B B3A A3G F2(3BAG  | G8 f2ed b2ag g8  | \
w:  kal bim  se *  ni  *  is  |  ter   SAZ  | 
f2g2 a2{b}ag g3^f gffe e8  | 
w:  Çeş *  *  *  *  *  mim  *  se *  *  *  ni   | 
e2g2 =f2e2 e3d edcB c8  | c4 c4 c3B B3A A3G F2(3BAG  | 
w:  sî *  *  *  nem  *  se *  *  *  ni   |  kal bim  se *  ni  *  is  | 
G8 F2ED B2AG G8  | |


